dist/svgs/crypto-icons/icons/btm.svg

<?xml version="1.0" encoding="UTF-8" standalone="yes"?>
<svg xmlns="http://www.w3.org/2000/svg" xmlns:xlink="http://www.w3.org/1999/xlink" width="512px" height="512px" viewBox="0 0 384 384" version="1.1">
  <g id="surface1">
    <path style=" stroke:none;fill-rule:nonzero;fill:rgb(0%,0%,0%);fill-opacity:1;" d="M 133.566406 117.9375 L 167.222656 151.597656 L 73.460938 245.960938 L 87.285156 298.25 L 122.746094 307.867188 L 167.222656 352.34375 L 154 365.566406 L 48.214844 337.320312 L 19.96875 231.535156 L 41.003906 210.5 L 133.5625 117.9375 Z M 337.320312 337.320312 L 231.535156 365.566406 L 117.9375 251.96875 L 151.597656 218.3125 L 245.960938 312.074219 L 298.25 298.25 L 307.867188 262.789062 L 352.34375 218.3125 L 365.566406 231.535156 Z M 298.25 87.285156 L 262.789062 77.667969 L 218.3125 33.191406 L 231.535156 19.96875 L 337.320312 48.214844 L 365.566406 154 L 251.96875 267.597656 L 218.3125 233.9375 L 312.074219 139.578125 Z M 77.667969 122.746094 L 33.191406 167.222656 L 19.96875 154 L 48.214844 48.214844 L 154 19.96875 L 175.039062 41.003906 L 267.597656 133.5625 L 233.9375 167.222656 L 139.578125 73.460938 L 87.285156 87.285156 Z M 77.667969 122.746094 "/>
  </g>
</svg>

<svg xmlns="http://www.w3.org/2000/svg" viewBox="0 0 384 384"><path d="M133.566 117.938l33.657 33.66L73.46 245.96l13.824 52.289 35.461 9.617 44.477 44.477L154 365.566 48.215 337.32 19.969 231.535 41.004 210.5l92.559-92.563zM337.32 337.32l-105.785 28.246L117.938 251.97l33.66-33.656 94.363 93.761 52.289-13.824 9.617-35.46 44.477-44.478 13.222 13.223zM298.25 87.285l-35.46-9.617-44.478-44.477 13.223-13.222L337.32 48.215 365.566 154 251.97 267.598l-33.656-33.66 93.761-94.36zM77.668 122.746l-44.477 44.477L19.97 154 48.215 48.215 154 19.969l21.04 21.035 92.558 92.559-33.66 33.66-94.36-93.762-52.293 13.824zm0 0"/></svg>
